koubei.svg

<?xml version="1.0" encoding="UTF-8"?>
<svg viewBox="0 0 24 24" version="1.1" xmlns="http://www.w3.org/2000/svg" xmlns:xlink="http://www.w3.org/1999/xlink">
    <title>Koubei</title>
    <path d="M22.0437295,8.39364395e-05 C23.1090732,8.39364395e-05 23.9787152,0.859212114 23.9999784,1.93303238 L23.9999784,6.92096442 C24.0070846,10.9849713 22.2590326,14.8507924 19.2114006,17.5108674 C16.7151107,19.7159629 13.9547901,20.6022359 11.8845497,20.8744699 C10.4293807,21.0680585 9.24124272,20.9894131 8.70418035,20.9531153 C8.55116258,20.9137926 8.39514446,20.8744699 8.24512704,20.7202039 C8.01410021,20.4903174 8.01410021,20.2180834 8.01410021,20.2180834 L8.01410021,18.9416084 C8.00954831,18.8582721 7.9825813,18.7777569 7.93609115,18.7086971 C7.90008697,18.6330765 7.82207791,18.5937538 7.74406885,18.5544311 C3.07766779,16.6403607 0.0191491303,12.0754914 8.32573081e-05,6.99658497 L8.32573081e-05,1.93303238 C-0.00468750448,1.41892016 0.195744957,0.924439105 0.556352204,0.560890379 C0.91695945,0.197341653 1.40743964,-0.00472574054 1.91739217,8.39364395e-05 Z M4.559,5.605 L4.4471473,5.61123516 C3.92546538,5.66739738 3.52557894,6.10668224 3.52557894,6.64873041 C3.53875529,11.3396612 7.30658706,15.1395785 11.9595584,15.1545323 C14.7512928,15.1562064 17.3634937,13.766991 18.9383689,11.4430738 C19.2515535,10.950997 19.1153273,10.2966247 18.6323333,9.97301016 C18.4057174,9.80621482 18.1209615,9.74088507 17.8450688,9.79239306 C17.5691761,9.84390105 17.3265078,10.0076987 17.174164,10.2452442 C15.986026,11.984517 14.0297988,13.0280807 11.9205539,13.0280807 C8.42770016,13.0247433 5.59747317,10.1700766 5.59581936,6.64873041 C5.59581936,6.06796452 5.1337657,5.6051667 4.5576988,5.6051667 L4.559,5.605 Z M19.321,5.45 L19.2013381,5.4571173 C18.6015798,5.51881747 18.095271,6.03280096 18.095271,6.68502827 C18.0985194,7.36624384 18.6437333,7.91859948 19.3194131,7.92520543 C20.0094933,7.92520543 20.5885605,7.34443954 20.549556,6.6880531 C20.549556,6.03166665 20.0094933,5.45090076 19.3194131,5.45090076 L19.321,5.45 Z" fill="#E94709" fill-rule="nonzero"></path>
</svg>

<svg viewBox="0 0 24 24" xmlns="http://www.w3.org/2000/svg"><path d="M22.044 0C23.109 0 23.979.86 24 1.933v4.988a14.023 14.023 0 0 1-4.789 10.59 13.856 13.856 0 0 1-7.326 3.363 15.559 15.559 0 0 1-3.18.08c-.154-.04-.31-.08-.46-.234-.23-.23-.23-.502-.23-.502v-1.276a.462.462 0 0 0-.079-.233c-.036-.076-.114-.115-.192-.155C3.078 16.64.02 12.075 0 6.997V1.933A1.923 1.923 0 0 1 .556.561C.917.197 1.407-.005 1.917 0ZM4.559 5.605l-.112.006a1.034 1.034 0 0 0-.921 1.038c.013 4.69 3.78 8.49 8.434 8.506a8.427 8.427 0 0 0 6.978-3.712 1.076 1.076 0 0 0-.306-1.47 1.014 1.014 0 0 0-1.458.272 6.355 6.355 0 0 1-5.253 2.783c-3.493-.003-6.324-2.858-6.325-6.38 0-.58-.462-1.043-1.038-1.043h.001Zm14.762-.155-.12.007a1.24 1.24 0 0 0-1.106 1.228 1.241 1.241 0 0 0 1.224 1.24c.69 0 1.27-.58 1.23-1.237 0-.656-.54-1.237-1.23-1.237l.002-.001Z" fill="#E94709"/></svg>
